be-latte/img/coffee-icon-divider.svg

<svg xmlns="http://www.w3.org/2000/svg" viewBox="0 0 39 39"><defs><style>.a{fill:#ebebeb;}</style></defs><title>coffee-icon-divider</title><path class="a" d="M23.16,34.12A15.82,15.82,0,0,1,9.75,26.7v.11H7.31A7.31,7.31,0,0,1,0,19.5V14.62a2.43,2.43,0,0,1,2.44-2.43H37.78A1.22,1.22,0,0,1,39,13.41v4.87A15.84,15.84,0,0,1,23.16,34.12ZM7.31,18.28V14.62H3.66a1.22,1.22,0,0,0-1.22,1.22V19.5a4.87,4.87,0,0,0,4.87,4.87H8.53A15.8,15.8,0,0,1,7.31,18.28Zm29.25-3.66H9.75v3.66a13.4,13.4,0,1,0,26.81,0ZM30.47,9.75a1.22,1.22,0,0,1-1.22-1.22V6.09a1.22,1.22,0,0,1,2.44,0V8.53A1.22,1.22,0,0,1,30.47,9.75Zm-7.31,0a1.22,1.22,0,0,1-1.22-1.22V1.22a1.22,1.22,0,1,1,2.43,0V8.53A1.22,1.22,0,0,1,23.16,9.75Zm-7.32,0a1.22,1.22,0,0,1-1.22-1.22V3.66a1.22,1.22,0,1,1,2.44,0V8.53A1.22,1.22,0,0,1,15.84,9.75ZM8.53,36.56H37.78a1.22,1.22,0,0,1,0,2.44H8.53a1.22,1.22,0,0,1,0-2.44Z"/></svg>

<?xml version="1.0" encoding="utf-8"?>
<svg xmlns="http://www.w3.org/2000/svg"
	xmlns:xlink="http://www.w3.org/1999/xlink"
	width="39px" height="39px" viewBox="0 0 39 39">
<filter filterUnits="objectBoundingBox" x="0.00" y="0.00" width="100.00" height="100.00" id="filter0">
<feFlood flood-color="rgb(235,235,235)" result="coFloodOut1"/>
<feComposite in="coFloodOut1" in2="SourceAlpha" operator="in" result="coOverlay1"/>
<feBlend in="coOverlay1" in2="SourceGraphic" mode="normal" result="colorOverlay1"/>
</filter>
<path fillRule="evenodd" d="M 23.16 34.12C 17.5 34.12 12.55 31.15 9.75 26.7 9.75 26.7 9.75 26.81 9.75 26.81 9.75 26.81 7.31 26.81 7.31 26.81 3.27 26.81-0 23.54-0 19.5-0 19.5-0 14.62-0 14.62-0 13.28 1.09 12.19 2.44 12.19 2.44 12.19 37.78 12.19 37.78 12.19 38.45 12.19 39 12.73 39 13.41 39 13.41 39 18.28 39 18.28 39 27.03 31.91 34.12 23.16 34.12ZM 7.31 18.28C 7.31 18.28 7.31 14.62 7.31 14.62 7.31 14.62 3.66 14.62 3.66 14.62 2.98 14.62 2.44 15.17 2.44 15.84 2.44 15.84 2.44 19.5 2.44 19.5 2.44 22.19 4.62 24.37 7.31 24.37 7.31 24.37 8.53 24.37 8.53 24.37 7.75 22.5 7.31 20.44 7.31 18.28ZM 36.56 14.62C 36.56 14.62 9.75 14.62 9.75 14.62 9.75 14.62 9.75 18.28 9.75 18.28 9.75 25.69 15.75 31.69 23.16 31.69 30.56 31.69 36.56 25.69 36.56 18.28 36.56 18.28 36.56 14.62 36.56 14.62ZM 30.47 9.75C 29.8 9.75 29.25 9.2 29.25 8.53 29.25 8.53 29.25 6.09 29.25 6.09 29.25 5.42 29.8 4.88 30.47 4.88 31.14 4.88 31.69 5.42 31.69 6.09 31.69 6.09 31.69 8.53 31.69 8.53 31.69 9.2 31.14 9.75 30.47 9.75ZM 23.16 9.75C 22.48 9.75 21.94 9.2 21.94 8.53 21.94 8.53 21.94 1.22 21.94 1.22 21.94 0.55 22.48-0 23.16-0 23.83-0 24.37 0.55 24.37 1.22 24.37 1.22 24.37 8.53 24.37 8.53 24.37 9.2 23.83 9.75 23.16 9.75ZM 15.84 9.75C 15.17 9.75 14.62 9.2 14.62 8.53 14.62 8.53 14.62 3.66 14.62 3.66 14.62 2.98 15.17 2.44 15.84 2.44 16.52 2.44 17.06 2.98 17.06 3.66 17.06 3.66 17.06 8.53 17.06 8.53 17.06 9.2 16.52 9.75 15.84 9.75ZM 8.53 36.56C 8.53 36.56 37.78 36.56 37.78 36.56 38.45 36.56 39 37.11 39 37.78 39 38.46 38.45 39 37.78 39 37.78 39 8.53 39 8.53 39 7.86 39 7.31 38.46 7.31 37.78 7.31 37.11 7.86 36.56 8.53 36.56Z" fill="rgb(235,235,235)" filter="url(#filter0)"/></svg>
